X:1
T:Der evangelische Kirchenchor
T:Mit Ernst, o Menschenkinder
T:Max Reger
T:Text: Valentin Thilo der Jüngere
T:Mit Ernst, o Menschenkinder
T:Nr. 1 aus Der evangelische Kirchenchor, WoO VI/17 
T:CPDL - Creative Commons Attribution Non Commercial 3.0
C:Max Reger
Z:Valentin Thilo der Jüngere
Z:CPDL - Creative Commons Attribution Non Commercial 3.0
%%score [ ( 1 2 ) ( 3 4 ) ]
L:1/8
Q:1/4=80
M:4/4
K:C
V:1 treble nm="Sopran\nAlt"
V:2 treble 
V:3 bass nm="Tenor\nBass"
V:4 bass 
V:1
"^Ziemlich langsam (doch nie schleppend)"!p!!<(! A2 | A2!<)! B2 c2 A2 |!>(! B4 G2!>)!!<(! G2 | %3
w: 1.~~Mit|Ernst, o Men- schen-|kin- der, das|
w: 2.~Be-|rei- tet doch fein|tüch- tig den|
w: 3.~Ach|ma- che du mich|Ar- men zu|
 A2!<)! A2!f! B2!>(! B2 |!p! E6!>)! |!p!!<(! A2 | A2!<)! B2 c2 A2 |!>(! B4 G2!>)!!<(! G2 | %8
w: Herz in euch be-|stellt,|bald|wird das Heil der|Sün- der, der|
w: Weg dem gro- ßen|Gast;|macht|sei- ne Stei- ge|rich- tig, lasst|
w: die- ser heil'- gen|Zeit|aus|Gü- te und Er-|bar- men, Herr|
 A2!<)! A2!f! B2!>(! B2 |!p! E6!>)! |!f!!<(! e2 | d2 c2!<)! c2 B2 | c6!p!!<(! B2 | %13
w: wun- der- star- ke|Held,|den|Gott aus Gnad al-|lein der|
w: al- les, was er|hasst.|Macht|e- ben je- den|Pfad, die|
w: Je- su, selbst be-|reit.|Zieh|in mein Herz hin-|ein, mach|
 c2 d2 e2 c2!<)! |!f!!>(! d4!>)! B2!<(! B2!<)! | c2 B2 A2 A2 | %16
w: Welt zum Licht und|Le- ben ver-|spro- chen hat zu|
w: Tal lasst sein er-|hö- het, macht|nie- drig, was hoch|
w: es zu dei- ner|Krip- pen, so|wer- den Herz und|
!>(! B4!>)! G2!p![Q:1/4=72]"^poco a poco rit."!<(! =F2 | E2!<)! A2 A2!>(! ^G2!>)! | %18
w: ge- ben, bei|al- len keh- ren|
w: ste- het, was|krumm ist, ma- chet|
w: Lip- pen dir|all- zeit dank- bar|
!pp! !fermata!A6 |] %19
w: ein.|
w: grad.|
w: sein.|
V:2
 E2 | F2 F2 E2 F2 | F4 E2 E2 | E2 FE D2 ^D2 | E6 | E2 | F2 F2 E2 F2 | F4 E2 E2 | E2 FE D2 ^D2 | %9
 E6 | G2 | F2 E2 D2 EF | E6 E2 | E2 F2 E2 F2 | ^F4 G2 ^G2 | A2 =G2 F2 E2 | ^D4 E2 C2 | %17
 C2 E2 F2 E2 | E6 |] %19
V:3
 C2 | C2 D2 C2 C2 | B,4 B,2 C2 | C2 C2 B,2 A,2 | ^G,6 | C2 | C2 D2 C2 C2 | B,4 B,2 C2 | %8
 C2 C2 B,2 A,2 | ^G,6 | C2 | A,2 G,2 A,2 G,2 | G,6 ^G,2 | A,3 B, CB, A,2 | (A,2 D2) D2 E2 | %15
 E3 D C2 C2 | B,4 B,2 A,2 | G,2 C2 B,2 B,2 |"^(3. Vers)" !courtesy!^C6 |] %19
V:4
 A,2 | F,2 D,2 A,,2 F,E, | D,4 E,2 C,2 | A,2 F,2 G,2 ^F,2 | E,6 | A,2 | F,2 D,2 A,,2 F,E, | %7
 D,4 E,2 C,2 | A,2 F,2 G,2 ^F,2 | E,6 | C,2 | D,2 E,2 F,2 G,2 | C,6 E,2 | A,2 D,2 C,2 F,E, | %14
 D,4 G,2 E,2 | A,2 E,2 F,2 ^F,2 | [B,,^F,]4 E,2 =F,2 | C,2 A,,2 D,2 E,2 | !fermata!A,,6 |] %19

